!!!COM: Music21
!!!OTL: slide_Tombrack--The
!!!OMV: slide_Tombrack--The
**kern
*clefG2
*k[f#]
*G:
*M12/8
=1
4g
8b
8bL
8a
8bJ
4g
8b
4d
8f#
=
4g
8b
8bL
8a
8gJ
4a
8b
8ccL
8b
8aJ
=
4g
8b
8bL
8a
8bJ
4g
8b
4d
8f#
=
4g
8b
4d
8e
4.g
4.g
!!linebreak:original
=||
*M12/8
4g
8b
8bL
8a
8bJ
4g
8b
4d
8f#
=
4g
8b
8bL
8a
8gJ
4a
8b
8ccL
8b
8aJ
=
4g
8b
8bL
8a
8bJ
4g
8b
4d
8f#
=
4g
8b
4d
8e
4.g
4.g
!!linebreak:original
=||
4b
8dd
8ddL
8b
8aJ
4b
8ee
8eeL
8dd
8ccJ
=
4b
8dd
8ddL
8b
8aJ
4ee
8dd
4b
8a
=
4b
8dd
8ddL
8b
8aJ
4b
8ee
8eeL
8dd
8cc#XJ
=
4dd
8b
4a
8b
4.g
4.g
!!linebreak:original
=||
4b
8dd
8ddL
8b
8aJ
4b
8ee
8eeL
8dd
8ccJ
=
4b
8dd
8ddL
8b
8aJ
4ee
8dd
4b
8a
=
4b
8dd
8ddL
8b
8aJ
4b
8ee
8eeL
8dd
8cc#XJ
=
4dd
8b
4a
8b
4.g
4.g
=||
*-
